X: 186
T: No_45_Cow_Creek_Hunting_Dance_Song_(l).krn
N: Derived from No_45_Cow_Creek_Hunting_Dance_Song_(l).krn
%%abc-version 2.0
%%abcx-abcm2ps-target-version 5.9.1 (29 Sep 2008)
%%abc-creator hum2abc beta
%%abcx-conversion-date 2019/03/15 08:38:45
%%humdrum-veritas 216556042
%%humdrum-veritas-data 3260788828
%%linebreak <none>
%%barnumbers 0
L: 1/8
M: 3/4
K: F clef=bass
[K:clef=bass][M:3/4]C2CA, A,G, | 
F,F,F,2z2 | 
C2CA, A,G, ||  
[M:2/4]F,F,F,2 ||  
[M:3/4]A,2CA, A,G, | 
F,F,F,2z2 ||  
[M:2/4]A,G,A,2 | 
G,4 | 
F,3/D,/D,2 | 
D,2z2 | 
F,3/F,/ (G,3/F,/) | 
F,4 ||  
[M:3/4]F,3/C,/C,2C,2 | 
A,2CA, A,G, ||  
[M:2/4]F,F,F,2 ||  
[M:3/4]C2CA, A,G, | 
F,F,z2F,2 ||  
[M:2/4]A,G, (A,3/G,/) | 
G,4 | 
F,3/D,/D,2 | 
D,2z2 | 
F,3/F,/ (G,3/F,/) | 
F,4 ||  
[M:3/4]F,3/C,/C,2C,2 | 
A,2CA, A,G, ||  
[M:2/4]F,F,F,2 ||  
[M:3/4]C2CA, A,G, ||  
[M:2/4]F,F, F, z | 
A,G, (A,3/G,/) | 
G,4 | 
F,3/D,/D,2 | 
D,2z2 | 
F,3/F,/ (G,3/F,/) | 
F,4 ||  
[M:3/4]F,3/C,/C,2C,2 |]  



